img/svg/mailing-icons/envelope-ico.svg

<svg width="22" height="22" viewBox="0 0 22 22" fill="none" xmlns="http://www.w3.org/2000/svg">
<path d="M21.1406 12.9258C21.6153 12.9258 22 12.541 22 12.0664V6.4375C22 4.54206 20.4579 3 18.5625 3H3.4375C1.54206 3 0 4.54206 0 6.4375V16.3633C0 18.2587 1.54206 19.8008 3.4375 19.8008H18.5625C20.4579 19.8008 22 18.2587 22 16.3633C22 15.8886 21.6153 15.5039 21.1406 15.5039C20.666 15.5039 20.2812 15.8886 20.2812 16.3633C20.2812 17.311 19.5102 18.082 18.5625 18.082H3.4375C2.48978 18.082 1.71875 17.311 1.71875 16.3633V6.6196L9.18479 11.2622C9.74463 11.6103 10.3723 11.7843 11 11.7843C11.6277 11.7843 12.2554 11.6103 12.8152 11.2622L20.2812 6.6196V12.0664C20.2812 12.541 20.666 12.9258 21.1406 12.9258ZM11.9076 9.80255C11.3478 10.1506 10.6522 10.1507 10.0924 9.80255L2.43586 5.04153C2.71807 4.83846 3.06406 4.71875 3.4375 4.71875H18.5625C18.9359 4.71875 19.2819 4.8385 19.5641 5.04157L11.9076 9.80255Z" fill="#4C51CC"/>
</svg>

<svg width="22" height="22" fill="none" xmlns="http://www.w3.org/2000/svg"><path d="M21.14 12.926a.86.86 0 00.86-.86V6.437A3.441 3.441 0 0018.562 3H3.438A3.441 3.441 0 000 6.438v9.925a3.441 3.441 0 003.438 3.438h15.124A3.441 3.441 0 0022 16.363a.86.86 0 10-1.719 0 1.72 1.72 0 01-1.718 1.719H3.438a1.72 1.72 0 01-1.72-1.719V6.62l7.467 4.642c.56.348 1.187.522 1.815.522.628 0 1.255-.174 1.815-.522l7.466-4.642v5.446c0 .475.385.86.86.86zm-9.232-3.123a1.708 1.708 0 01-1.816 0L2.436 5.042a1.71 1.71 0 011.002-.323h15.124c.374 0 .72.12 1.002.323l-7.656 4.76z" fill="#4C51CC"/></svg>
